X: 13102
T: Firebird
R: reel
M: 4/4
K: Amixolydian
fe|:dA3 ABdf|g3f eA3|ABcd e2ge|f2df edce|
dA3 ABdf|g3f eA3|ABcd e2ge|edce d2:|
fg|a3g f3e|dA3 ABdf|g3f e3f|gagf e2 fg|
a3g f3e|dA3 ABdf|g3f e3d|cdef d2 fg|
a3g f3e|dA3 ABdf|g3f e3f|gagf e2 fg|
a3g f3e|dA3 AGAB|=c3B =cded|^cdef d2||

